icons/ui_folder_family.svg

<svg width="48" height="48" viewBox="0 0 48 48" fill="none" xmlns="http://www.w3.org/2000/svg">
<path d="M18.5 24C18.5 25.6569 17.1569 27 15.5 27C13.8431 27 12.5 25.6569 12.5 24C12.5 22.3431 13.8431 21 15.5 21C17.1569 21 18.5 22.3431 18.5 24Z" fill="black"/>
<path d="M32.5 27C34.1569 27 35.5 25.6569 35.5 24C35.5 22.3431 34.1569 21 32.5 21C30.8431 21 29.5 22.3431 29.5 24C29.5 25.6569 30.8431 27 32.5 27Z" fill="black"/>
<path d="M31 29C29.3431 29 28 30.3431 28 32V34H37V32C37 30.3431 35.6569 29 34 29H31Z" fill="black"/>
<path d="M14 29C12.3431 29 11 30.3431 11 32V34H20V32C20 30.3431 18.6569 29 17 29H14Z" fill="black"/>
<path d="M26 26.5C26 27.6046 25.1046 28.5 24 28.5C22.8954 28.5 22 27.6046 22 26.5C22 25.3954 22.8954 24.5 24 24.5C25.1046 24.5 26 25.3954 26 26.5Z" fill="black"/>
<path d="M24 30C22.3431 30 21 31.3431 21 33V34H27V33C27 31.3431 25.6569 30 24 30Z" fill="black"/>
<path fill-rule="evenodd" clip-rule="evenodd" d="M24.7117 10.5554L27.1538 15H39C40.6569 15 42 16.3431 42 18V36C42 37.6569 40.6569 39 39 39H9C7.34315 39 6 37.6569 6 36V12C6 10.3431 7.34315 9 9 9H22.0825C23.177 9 24.1847 9.59609 24.7117 10.5554ZM9 37C8.44772 37 8 36.5523 8 36V17H39C39.5523 17 40 17.4477 40 18V36C40 36.5523 39.5523 37 39 37H9ZM24.8718 15L22.9589 11.5184C22.7832 11.1987 22.4473 11 22.0825 11H9C8.44772 11 8 11.4477 8 12V15H24.8718Z" fill="black"/>
</svg>

<svg
  xmlns="http://www.w3.org/2000/svg"
  width="24"
  height="24"
  viewBox="0 0 24 24"
  fill="none"
  stroke="currentColor"
  stroke-width="2"
  stroke-linecap="round"
  stroke-linejoin="round"
>
  <path d="M18.5 24a3 3 0 1 1-6 0 3 3 0 0 1 6 0" />
  <path d="M32.5 27a3 3 0 1 0 0-6 3 3 0 0 0 0 6" />
  <path d="M31 29a3 3 0 0 0-3 3v2h9v-2a3 3 0 0 0-3-3z" />
  <path d="M14 29a3 3 0 0 0-3 3v2h9v-2a3 3 0 0 0-3-3z" />
  <path d="M26 26.5a2 2 0 1 1-4 0 2 2 0 0 1 4 0" />
  <path d="M24 30a3 3 0 0 0-3 3v1h6v-1a3 3 0 0 0-3-3" />
  <path
    fill-rule="evenodd"
    d="M24.712 10.555 27.154 15H39a3 3 0 0 1 3 3v18a3 3 0 0 1-3 3H9a3 3 0 0 1-3-3V12a3 3 0 0 1 3-3h13.083a3 3 0 0 1 2.629 1.555M9 37a1 1 0 0 1-1-1V17h31a1 1 0 0 1 1 1v18a1 1 0 0 1-1 1zm15.872-22-1.913-3.482a1 1 0 0 0-.876-.518H9a1 1 0 0 0-1 1v3z"
    clip-rule="evenodd"
  />
</svg>
